svg/color/sbeton.svg

<svg width="40" height="40" viewBox="0 0 40 40" fill="none" xmlns="http://www.w3.org/2000/svg">
<g clip-path="url(#clip0_819_3495)">
<path d="M20 0C31.0457 0 40 8.9543 40 20C40 31.0457 31.0457 40 20 40C8.95431 40 7.90517e-06 31.0457 0 20C6.58765e-07 8.95431 8.95431 1.97595e-06 20 0Z" fill="#D9D9D9"/>
<path d="M26 6C30.4183 6 34 9.58172 34 14V26C34 30.4183 30.4183 34 26 34H14C9.58172 34 6 30.4183 6 26V14C6 9.58172 9.58172 6 14 6H26Z" fill="black"/>
<path d="M11.0857 15.4939C11.249 14.8744 11.6847 14.5167 12.2245 14.2109C14.5067 12.918 16.7802 11.6099 19.0452 10.2867C19.7014 9.90385 20.3049 9.90478 20.9611 10.2874C23.284 11.642 25.6147 12.9833 27.9529 14.3116C28.6116 14.6859 28.9172 15.2001 28.9117 15.9648C28.8924 18.6622 28.892 21.3598 28.9105 24.0574C28.9149 24.7985 28.6144 25.3022 27.9751 25.6662C25.6137 27.0106 23.2584 28.3658 20.9092 29.7317C20.2924 30.0896 19.7119 30.0895 19.0945 29.7309C16.81 28.404 14.5196 27.0873 12.2233 25.7809C11.6829 25.4747 11.2484 25.1153 11.0857 24.4955V15.4939ZM27.9281 20.0012C27.9281 18.6236 27.926 17.246 27.9299 15.8685C27.9307 15.6024 27.855 15.3944 27.611 15.2543C25.1801 13.8581 22.7504 12.4598 20.3218 11.0595C20.2263 10.9981 20.115 10.9654 20.0013 10.9656C19.8877 10.9658 19.7765 10.9987 19.6811 11.0604C17.2608 12.4561 14.8392 13.8495 12.4162 15.2405C12.3105 15.2936 12.2224 15.3761 12.1626 15.4782C12.1029 15.5802 12.074 15.6974 12.0795 15.8155C12.0816 18.599 12.0815 21.3825 12.0792 24.166C12.0734 24.2887 12.1036 24.4105 12.1659 24.5164C12.2283 24.6223 12.3201 24.7077 12.4302 24.7623C14.8289 26.1389 17.2258 27.5187 19.6208 28.9016C19.7349 28.9768 19.8685 29.0166 20.0051 29.0163C20.1417 29.0159 20.2752 28.9752 20.3888 28.8994C22.7662 27.5238 25.1466 26.1534 27.5301 24.7882C27.6607 24.7237 27.7688 24.6214 27.8406 24.4947C27.9123 24.3679 27.9443 24.2225 27.9324 24.0774C27.9222 22.7187 27.9281 21.3599 27.9281 20.0012Z" fill="white"/>
<path d="M13.9333 20.7996C14.2325 20.9717 14.5202 21.1281 14.7958 21.3033C14.8232 21.3318 14.8446 21.3655 14.8587 21.4024C14.8728 21.4393 14.8794 21.4786 14.878 21.5181C14.887 21.8292 14.8623 22.1425 14.8915 22.451C14.8997 22.5207 14.922 22.5881 14.9571 22.6489C14.9922 22.7098 15.0394 22.7628 15.0957 22.8047C16.6676 23.7245 18.2489 24.6281 19.825 25.5406C19.8915 25.5841 19.9696 25.6063 20.049 25.6044C20.1284 25.6024 20.2053 25.5764 20.2696 25.5297C21.8076 24.6267 23.3481 23.728 24.8912 22.8335C24.9679 22.7977 25.0318 22.7394 25.0745 22.6663C25.1171 22.5932 25.1364 22.5088 25.1298 22.4244C25.1199 22.104 25.1186 21.7828 25.1301 21.4624C25.1375 21.3691 25.1156 21.2758 25.0675 21.1955C25.0194 21.1152 24.9474 21.0519 24.8616 21.0144C23.315 20.1263 21.7752 19.2262 20.2285 18.3382C20.0619 18.2425 19.9792 18.1451 19.9933 17.9448C20.0123 17.6741 19.998 17.401 19.998 17.0861C20.109 17.1426 20.191 17.1797 20.2685 17.2245C21.9755 18.2125 23.6796 19.2053 25.3901 20.1873C25.8805 20.4688 26.1257 20.8693 26.1142 21.4338C26.1067 21.8015 26.118 22.1696 26.1109 22.5374C26.1156 22.7561 26.0604 22.972 25.9514 23.1617C25.8423 23.3514 25.6836 23.5077 25.4922 23.6138C23.8879 24.5531 22.2823 25.49 20.6751 26.4244C20.4855 26.5434 20.2663 26.6069 20.0424 26.6076C19.8185 26.6083 19.5989 26.5461 19.4085 26.4282C17.7794 25.4943 16.1516 24.558 14.5252 23.6193C14.2245 23.4461 13.9675 23.1951 13.9459 22.8566C13.9031 22.1855 13.9333 21.5098 13.9333 20.7996Z" fill="white"/>
<path d="M26.1127 18.6836C25.7836 18.4938 25.4958 18.3369 25.2199 18.1612C25.1916 18.1332 25.1692 18.0997 25.1541 18.0629C25.1389 18.026 25.1313 17.9865 25.1316 17.9467C25.1206 17.6924 25.1262 17.4374 25.1263 17.1828C25.131 17.0691 25.103 16.9565 25.0456 16.8583C24.9881 16.7601 24.9036 16.6805 24.8022 16.629C23.3038 15.7704 21.8071 14.9088 20.3121 14.0444C20.2093 13.977 20.089 13.9412 19.966 13.9413C19.8431 13.9415 19.7229 13.9776 19.6202 14.0453C18.1553 14.9052 16.6884 15.7617 15.2193 16.6147C15.1097 16.6699 15.0189 16.7564 14.9584 16.8631C14.8979 16.9699 14.8703 17.0923 14.8793 17.2147C14.9016 18.5078 14.7155 18.2357 15.8461 18.8955C17.1583 19.6614 18.4734 20.4223 19.7913 21.1783C19.9384 21.2627 20.0124 21.3504 20.0023 21.5287C19.9862 21.8103 19.998 22.0934 19.998 22.4265C19.8783 22.362 19.7901 22.3175 19.7047 22.2681C18.0795 21.3271 16.4603 20.3757 14.827 19.449C14.1741 19.0786 13.8554 18.5567 13.8946 17.8094C13.9079 17.5554 13.8937 17.2999 13.9046 17.0457C13.9075 16.7983 13.9755 16.556 14.1017 16.3432C14.228 16.1304 14.4081 15.9546 14.6238 15.8335C16.1515 14.9314 17.6838 14.0371 19.2206 13.1506C19.4486 13.0116 19.7107 12.9387 19.9777 12.9402C20.2447 12.9417 20.506 13.0174 20.7324 13.1589C22.2643 14.035 23.794 14.9148 25.3217 15.7983C25.5686 15.9315 25.7734 16.1311 25.9131 16.3744C26.0527 16.6178 26.1216 16.8954 26.112 17.1758C26.1155 17.6566 26.1127 18.1375 26.1127 18.6836Z" fill="white"/>
</g>
<defs>
<clipPath id="clip0_819_3495">
<rect width="40" height="40" fill="white"/>
</clipPath>
</defs>
</svg>

<svg xmlns="http://www.w3.org/2000/svg" width="40" height="40" fill="none" viewBox="0 0 40 40"><g clip-path="url(#sbeton_svg-a)"><path fill="#D9D9D9" d="M20 0c11.046 0 20 8.954 20 20s-8.954 20-20 20S0 31.046 0 20 8.954 0 20 0"/><path fill="#000" d="M26 6a8 8 0 0 1 8 8v12a8 8 0 0 1-8 8H14a8 8 0 0 1-8-8V14a8 8 0 0 1 8-8z"/><path fill="#fff" d="M11.086 15.494c.163-.62.599-.977 1.139-1.283a592 592 0 0 0 6.82-3.924c.656-.383 1.26-.382 1.916 0a713 713 0 0 0 6.992 4.025c.659.374.964.888.959 1.653q-.03 4.046-.002 8.092c.005.742-.296 1.245-.935 1.61a896 896 0 0 0-7.066 4.065c-.617.358-1.197.358-1.814-.001a885 885 0 0 0-6.872-3.95c-.54-.306-.975-.666-1.137-1.285zM27.928 20q-.002-2.066.002-4.133c0-.266-.075-.474-.319-.614q-3.645-2.094-7.29-4.194a.59.59 0 0 0-.64 0q-3.63 2.094-7.265 4.18a.61.61 0 0 0-.337.575q.004 4.176 0 8.351a.63.63 0 0 0 .351.596q3.599 2.066 7.19 4.14a.7.7 0 0 0 .769-.003 1877 1877 0 0 1 7.141-4.11.73.73 0 0 0 .402-.712c-.01-1.358-.004-2.717-.004-4.076"/><path fill="#fff" d="M13.933 20.8c.3.172.587.328.863.503a.3.3 0 0 1 .082.215c.009.311-.016.624.014.933a.52.52 0 0 0 .204.354c1.572.92 3.153 1.823 4.729 2.736a.39.39 0 0 0 .445-.011 963 963 0 0 1 4.621-2.697.42.42 0 0 0 .239-.409q-.016-.48 0-.962a.45.45 0 0 0-.268-.448c-1.547-.888-3.087-1.788-4.633-2.676-.167-.096-.25-.193-.236-.393.02-.27.005-.544.005-.859.111.057.193.094.27.139 1.707.987 3.412 1.98 5.122 2.962.49.282.736.682.724 1.247-.007.367.004.736-.003 1.103a1.2 1.2 0 0 1-.619 1.077q-2.406 1.41-4.817 2.81a1.2 1.2 0 0 1-1.267.004q-2.443-1.4-4.883-2.809c-.3-.173-.558-.424-.58-.762-.042-.671-.012-1.347-.012-2.057"/><path fill="#fff" d="M26.113 18.684c-.33-.19-.617-.347-.893-.523a.3.3 0 0 1-.088-.214c-.011-.255-.006-.51-.006-.764a.59.59 0 0 0-.324-.554q-2.247-1.288-4.49-2.585a.63.63 0 0 0-.692.001q-2.198 1.29-4.4 2.57a.62.62 0 0 0-.34.6c.022 1.293-.165 1.02.966 1.68q1.968 1.149 3.945 2.283c.147.085.221.172.211.35-.016.282-.004.565-.004.899-.12-.065-.208-.11-.293-.159-1.625-.94-3.245-1.892-4.878-2.819-.653-.37-.972-.892-.932-1.64.013-.254-.001-.51.01-.763a1.41 1.41 0 0 1 .719-1.212q2.291-1.354 4.597-2.683a1.44 1.44 0 0 1 1.511.008q2.298 1.314 4.59 2.64a1.51 1.51 0 0 1 .79 1.377c.004.48 0 .962 0 1.508"/></g><defs><clipPath id="sbeton_svg-a"><path fill="#fff" d="M0 0h40v40H0z"/></clipPath></defs></svg>
